svg/fluentui-system-icons/ic_fluent_document_100_16_regular.svg

<svg width="16" height="16" viewBox="0 0 16 16" fill="none" xmlns="http://www.w3.org/2000/svg">
<path d="M5.00012 1C3.89555 1 3.00012 1.89543 3.00012 3V9.15599C3.15996 9.22561 3.32846 9.32732 3.48484 9.47372C3.5642 9.54802 3.64498 9.63919 3.71833 9.74637C3.80591 9.65739 3.90011 9.57494 4.00012 9.49982V3C4.00012 2.44772 4.44784 2 5.00012 2H8.00012V4.5C8.00012 5.32843 8.67169 6 9.50012 6H12.0001V13.5C12.0001 14.0281 11.8364 14.5179 11.557 14.9215C12.3906 14.6803 13.0001 13.9113 13.0001 13V5.41421C13.0001 5.01639 12.8421 4.63486 12.5608 4.35355L9.64657 1.43934C9.36526 1.15804 8.98373 1 8.58591 1H5.00012ZM11.793 5H9.50012C9.22398 5 9.00012 4.77614 9.00012 4.5V2.20711L11.793 5ZM3.00012 10.6543C3.00012 10.451 2.90141 10.2974 2.80139 10.2037C2.70506 10.1135 2.59319 10.0622 2.49505 10.0357C2.34312 9.99463 1.9931 9.96564 1.77004 10.2606C1.57289 10.5213 1.26022 10.8323 0.793001 11.0449C0.541665 11.1593 0.430649 11.4558 0.545039 11.7071C0.659429 11.9585 0.955908 12.0695 1.20724 11.9551C1.51917 11.8131 1.78152 11.6398 2.00012 11.4582V14.5C2.00012 14.7761 2.22398 15 2.50012 15C2.77626 15 3.00012 14.7761 3.00012 14.5V10.6543ZM4.00012 11.5C4.00012 10.6716 4.67169 10 5.50012 10C6.32855 10 7.00012 10.6716 7.00012 11.5V13.5C7.00012 14.3284 6.32855 15 5.50012 15C4.67169 15 4.00012 14.3284 4.00012 13.5V11.5ZM5.50012 11C5.22398 11 5.00012 11.2239 5.00012 11.5V13.5C5.00012 13.7761 5.22398 14 5.50012 14C5.77626 14 6.00012 13.7761 6.00012 13.5V11.5C6.00012 11.2239 5.77626 11 5.50012 11ZM9.50012 10C8.67169 10 8.00012 10.6716 8.00012 11.5V13.5C8.00012 14.3284 8.67169 15 9.50012 15C10.3285 15 11.0001 14.3284 11.0001 13.5V11.5C11.0001 10.6716 10.3285 10 9.50012 10ZM9.00012 11.5C9.00012 11.2239 9.22398 11 9.50012 11C9.77626 11 10.0001 11.2239 10.0001 11.5V13.5C10.0001 13.7761 9.77626 14 9.50012 14C9.22398 14 9.00012 13.7761 9.00012 13.5V11.5Z" fill="#212121"/>
</svg>

<svg xmlns="http://www.w3.org/2000/svg" width="16" height="16"><path d="M5 1a2 2 0 0 0-2 2v6.156a1.702 1.702 0 0 1 .718.59c.088-.089.182-.171.282-.246V3a1 1 0 0 1 1-1h3v2.5A1.5 1.5 0 0 0 9.5 6H12v7.5c0 .528-.164 1.018-.443 1.421A2.001 2.001 0 0 0 13 13V5.414a1.5 1.5 0 0 0-.44-1.06L9.648 1.439A1.5 1.5 0 0 0 8.586 1H5Zm6.793 4H9.5a.5.5 0 0 1-.5-.5V2.207L11.793 5ZM3 10.654a.616.616 0 0 0-.199-.45.725.725 0 0 0-.306-.168c-.152-.041-.502-.07-.725.225-.197.26-.51.571-.977.784a.5.5 0 0 0 .414.91A3.52 3.52 0 0 0 2 11.458V14.5a.5.5 0 0 0 1 0v-3.846Zm1 .846a1.5 1.5 0 0 1 3 0v2a1.5 1.5 0 0 1-3 0v-2Zm1.5-.5a.5.5 0 0 0-.5.5v2a.5.5 0 0 0 1 0v-2a.5.5 0 0 0-.5-.5Zm4-1A1.5 1.5 0 0 0 8 11.5v2a1.5 1.5 0 0 0 3 0v-2A1.5 1.5 0 0 0 9.5 10ZM9 11.5a.5.5 0 0 1 1 0v2a.5.5 0 0 1-1 0v-2Z"/></svg>
